!!!COM: Music21
!!!OTL: O Galo
!!!OMV: pezas_pasodobles_o-galo_o-galo-partitura.musicxml
**kern
*part1
*staff1
*I"Bagpipes
*I'Bag
*clefG^2
*k[]
*M2/4
=1
!LO:TX:a:t=Allegretto
*MM120
!LO:TX:a:t=[quarter]=120
4r
8ggL
8ggJ
=||
8aaL
8ggJ
8aaL
8ggJ
=
8aaL
8ggJ
8ggL
8ggJ
=
8aaL
8ggJ
8ffL
8eeJ
=
4ff
8ffL
8ffJ
=
8ggL
8ffJ
8ggL
8ffJ
=
8ggL
8ffJ
8ffL
8ffJ
=
8ggL
8ffJ
8eeL
8ddJ
!!linebreak:original
=
4ee
8ggL
8ggJ
=||
8aaL
8ggJ
8aaL
8ggJ
=
8aaL
8ggJ
8ggL
8ggJ
=
8aaL
8ggJ
8ffL
8eeJ
=
4ff
8ffL
8ffJ
=
8ggL
8ffJ
8ggL
8ffJ
!!linebreak:original
=
8ggL
8ffJ
8ffL
8ggJ
=
8ffL
8eeJ
8ddL
8ffJ
=
[2ee
=
4ee]
4gg
=||
8eeL
8eeJ
8eeL
8ffJ
=
4gg
4aa
=
8aa
[4.gg
=
4gg]
4gg
=
8gg
[4.ff
=
4ff]
4aa
=
8aa
[4.gg
!!linebreak:original
=
4gg]
4gg
!!linebreak:original
=
8eeL
8eeJ
8eeL
8ffJ
=
4gg
4aa
=
8aaL
8ggJ
8eeL
8ffJ
=
4gg
4aa
=
8ggL
8ffJ
8ddL
8eeJ
=
4ff
4gg
=||
8ff
[4.ee
=
4ee]
8ggL
8ggJ
=||
8ff
[4.ee
=
4ee]
8ggL
8cccJ
==
*-
!!!system-decoration: s1,s2
